X:312
T: Vom juengsten Tag
N: A0657
O: Europa, Mitteleuropa, Deutschland
N: J. Walther Gsgb 1551
R: Romanze, Ballade, Lied, religioeses Lied
M: 4/1
L: 1/2
K: A
A2 | A2A2=c2A2 | =F2A2F2z
A | A2A2=c2A2 | =F2A2F2z
F | _B2A2=G2B2 | A2=F2D2z
A | _B2A2=G2B2 | A2=F2D2z
_B | A2=G2=F2D2 | =FF=GGA2

